shader_type canvas_item;
uniform sampler2D screen_texture : hint_screen_texture, repeat_disable, filter_nearest;
void vertex() {
	// Called for every vertex the material is visible on.
}

void fragment() {
	COLOR=(vec4(vec3(1.0-texture(screen_texture, SCREEN_UV).r),texture(TEXTURE, UV).a));
}

//void light() {
//	// Called for every pixel for every light affecting the CanvasItem.
//	// Uncomment to replace the default light processing function with this one.
//}
